X: 10571
M: 1/4
L: 1/16
K: A
V: 1 staves=2
E2 |\
|: e2 |\
aecA Acec | dBGB E2E2 | C2EE A2cf | aecA E2e2 |\
aecA Acec | dBGB E2e2 | fgaf edcB | A2A2A2 :|
V: 2 clef=bass middle=D
E2 |\
|: E2 |\


